src/linkedin.svg

<svg viewBox="0 0 16 16" fill="none" xmlns="http://www.w3.org/2000/svg"><path d="M2.89 2H13.11C13.346 2 13.5724 2.09377 13.7393 2.26067C13.9062 2.42758 14 2.65396 14 2.89V13.11C14 13.346 13.9062 13.5724 13.7393 13.7393C13.5724 13.9062 13.346 14 13.11 14H2.89C2.65396 14 2.42758 13.9062 2.26067 13.7393C2.09377 13.5724 2 13.346 2 13.11V2.89C1.99999 2.65568 2.09238 2.43081 2.25713 2.26418C2.42188 2.09756 2.64569 2.00263 2.88 2H2.89ZM12.23 11.93V8.39C12.2767 8.12179 12.2682 7.84685 12.205 7.58205C12.1417 7.31724 12.0251 7.06814 11.8622 6.85C11.6993 6.63186 11.4935 6.44927 11.2576 6.31343C11.0216 6.17759 10.7604 6.09135 10.49 6.06C10.3702 6.05003 10.2498 6.05003 10.13 6.06C9.78311 6.05947 9.44243 6.15197 9.14344 6.32785C8.84445 6.50372 8.59808 6.75655 8.43 7.06V6.2H6.67V11.93H8.47V8.83C8.452 8.68363 8.46388 8.53513 8.50493 8.39348C8.54599 8.25184 8.61536 8.12 8.70885 8.00594C8.80234 7.89189 8.918 7.79799 9.04883 7.72993C9.17966 7.66187 9.32294 7.62107 9.47 7.61H9.57C10.08 7.61 10.47 7.9 10.47 8.82V11.95H12.27L12.23 11.93ZM5 5.4C5.19778 5.4 5.39112 5.34135 5.55557 5.23147C5.72002 5.12159 5.84819 4.96541 5.92388 4.78268C5.99957 4.59996 6.01937 4.39889 5.98079 4.20491C5.9422 4.01093 5.84696 3.83275 5.70711 3.69289C5.56725 3.55304 5.38907 3.4578 5.19509 3.41921C5.00111 3.38063 4.80004 3.40043 4.61732 3.47612C4.43459 3.55181 4.27841 3.67998 4.16853 3.84443C4.05865 4.00888 4 4.20222 4 4.4C4 4.66522 4.10536 4.91957 4.29289 5.10711C4.48043 5.29464 4.73478 5.4 5 5.4ZM4.1 11.93H5.9V6.2H4.14V11.93H4.1Z" fill="#111111"/></svg>

<svg viewBox="0 0 16 16" fill="none" xmlns="http://www.w3.org/2000/svg"><path d="M2.89 2h10.22a.89.89 0 0 1 .89.89v10.22a.89.89 0 0 1-.89.89H2.89a.89.89 0 0 1-.89-.89V2.89A.89.89 0 0 1 2.88 2h.01Zm9.34 9.93V8.39a2.001 2.001 0 0 0-1.74-2.33 2.17 2.17 0 0 0-.36 0 1.94 1.94 0 0 0-1.7 1V6.2H6.67v5.73h1.8v-3.1a1.09 1.09 0 0 1 1-1.22h.1c.51 0 .9.29.9 1.21v3.13h1.8l-.04-.02ZM5 5.4a1 1 0 1 0 0-2 1 1 0 0 0 0 2Zm-.9 6.53h1.8V6.2H4.14v5.73H4.1Z" fill="#111111"/></svg>
